!!!!SEGMENT: pl-stab--27c--001-009_nowakiewicz-kazimierz--missa-in-b-agnus-dei.krn
!!!cenid: 18xx:3458
!!!COM: Nowakiewicz, Kazimierz
!!!COM-rismID: pe30020309
!!!CDT: <1800->1824
!!!CNT: Polish
!!!OPR: Missa in B
!!!OTL: Agnus Dei
!!!OMV: 009
!!!PDT:
!!!AGN:
!!!YEC: Copyright 2022 Narodowy Instytut Fryderyka Chopina (https://polishscores.org)
!!!YEM: License CC-BY-4.0 (https://creativecommons.org/licenses/by/4.0)
!!!SMS-siglum: PL-STAb
!!!SMS-shelfmark: 27c
!!!SMS-shelfwork: 001-009 M
!!!SMS-variant:
!!!SMS-altvar:
!!!NIFC-rismSourceID: 301050705
!!!NIFC-rismChildID: 301050705
!!!NIFC-islandoraID: pl-stab:3750
!!!URL-pdf-islandora: https://repozytorium.nifc.pl/islandora/object/pl-stab%3A3750/datastream/PDF/view
!!!URL-scan: https://polish.musicsources.pl/pl/lokalizacje/galeria/rekopisy/4473 @EN{Scan on Polish Music Sources Website} @PL{Skany w portalu Dziedzictwo Muzyki Polskiej w otwartym dostępie}
!!!IIIF:
!!!ONB-nifc: UWAGA: części Mszy: 1. Kyrie, 2. Gloria, 3. Credo, 4. Et incarnatus, 5. Et resurrexit, 6. Sanctus, 7. Pleni sunt, 8. Benedictus, 9. Agnus Dei, 10. Dona nobis
!!!AIN: 1 alto 1 bass 2 clars 2 cor 1 organ 1 soprn 1 tenor 2 violn
!!!key: g
!!!OMD:
!!!OMD-mod: Adagio
**kern	**fba	**kern	**dynam	**kern	**dynam	**kern	**text	**mod-text	**kern	**text	**mod-text	**kern	**text	**kern	**text	**kern	**kern	**kern	**dynam	**mod-dynam	**kern	**dynam
*part11	*	*part10	*	*part9	*	*part8	*	*	*part7	*	*	*part6	*	*part5	*	*part4	*part3	*part2	*	*	*part1	*
*staff11	*	*staff10	*	*staff9	*	*staff8	*	*	*staff7	*	*	*staff6	*	*staff5	*	*staff4	*staff3	*staff2	*	*	*staff1	*
*IGcont	*	*	*	*	*	*IGcoro	*	*	*IGcoro	*	*	*IGcoro	*	*IGcoro	*	*	*	*	*	*	*	*
*ICklav	*	*ICstr	*	*ICstr	*	*ICvox	*	*	*ICvox	*	*	*ICvox	*	*ICvox	*	*ICbrass	*ICbrass	*ICww	*	*	*ICww	*
*Iorgan	*	*Ivioln	*	*Ivioln	*	*Ibass	*	*	*Itenor	*	*	*Ialto	*	*Isoprn	*	*Icor	*Icor	*Iclars	*	*	*Iclars	*
*I"Organo	*	*I"Violino Secundo	*	*I"Violino Primo	*	*I"Baſso	*	*	*I"Tenore	*	*	*I"Alto	*	*I"Canto	*	*I"Cornu Secundo in B.	*I"Cornu Primo in B.	*I"Clarinetto 2do in B.	*	*	*I"Clarinetto Primo in B.	*
*	*	*mI"Violino II	*	*mI"Violino I	*	*mI"Basso	*	*	*	*	*	*	*	*mI"Soprano	*	*mI"Corno II in B	*mI"Corno I in B	*mI"Clarinetto II in B	*	*	*mI"Clarinetto I in B	*
*I'org	*	*I'vl 2	*	*I'vl 1	*	*I'B	*	*	*I'T	*	*	*I'A	*	*I'S	*	*I'cor 2 in B|♭	*I'cor 1 in B|♭	*I'cl 2 in B|♭	*	*	*I'cl 1 in B|♭	*
*clefF4	*	*clefG2	*	*clefG2	*	*clefF4	*	*	*clefC4	*	*	*clefC3	*	*clefC1	*	*clefG2	*clefG2	*clefG2	*	*	*clefG2	*
*	*	*	*	*	*	*	*	*	*mclefGv2	*	*	*mclefG2	*	*mclefG2	*	*	*	*	*	*	*	*
*	*	*	*	*	*	*	*	*	*	*	*	*	*	*	*	*ITrd1c2	*ITrd1c2	*ITrd1c2	*	*	*ITrd1c2	*
*k[b-e-]	*	*k[b-e-]	*	*k[b-e-]	*	*k[b-e-]	*	*	*k[e-b-]	*	*	*k[e-b-]	*	*k[b-e-]	*	*k[b-e-]	*k[b-e-]	*k[b-e-]	*	*	*k[b-e-]	*
*g:	*	*g:	*	*g:	*	*g:	*	*	*g:	*	*	*g:	*	*g:	*	*g:	*g:	*g:	*	*	*g:	*
*M3/4	*	*M3/4	*	*M3/4	*	*M3/4	*	*	*M3/4	*	*	*M3/4	*	*M3/4	*	*M3/4	*M3/4	*M3/4	*	*	*M3/4	*
*2\right	*	*2\right	*	*2\right	*	*2\right	*	*	*2\right	*	*	*2\right	*	*2\right	*	*	*	*2\right	*	*	*2\right	*
=1	=1	=1	=1	=1	=1	=1	=1	=1	=1	=1	=1	=1	=1	=1	=1	=1	=1	=1	=1	=1	=1	=1
!	!	!	!	!	!	!	!	!	!LO:TX:a:t=adagio:rj:mod=	!	!	!	!	!LO:TX:a:t=adagio:rj:mod=	!	!	!	!	!	!	!	!
!	!	!LO:TX:a:t=andante:rj:mod=	!LO:DY:a:t=for:rj	!LO:TX:a:t=andante:rj:mod=	!	!	!	!	!	!	!	!	!	!	!	!LO:TX:a:t=Agnus Tacet:mod=	!LO:TX:a:t=Agnus Tacet:mod=	!LO:TX:a:t=adagio:rj:mod=	!	!	!LO:TX:a:t=Adagio:mod=	!
!	!	!	!	!	!LO:DY:t= :mod=%s	!	!	!	!	!	!	!	!	!	!	!	!	!	!	!	!	!
!	!	!	!	!	!LO:MO:mod=!LO&colon;DY&colon;ed=brack	!	!	!	!	!	!	!	!	!	!	!	!	!	!	!	!	!
!	!	!	!	!	!null	!	!	!	!	!	!	!	!	!	!	!	!	!	!	!	!	!
8G\L	x -	8b-\L	f	8dd\L	f	2G\	A-	A-	2B-\	A-	A-	2g\	A-	2dd\	A-	2.ryy	2.ryy	0.r	.	.	0.r	.
8G\	.	8b-\	.	8dd\	.	.	.	.	.	.	.	.	.	.	.	.	.	.	.	.	.	.
8G\	.	8b-\	.	8dd\	.	.	.	.	.	.	.	.	.	.	.	.	.	.	.	.	.	.
8G\	.	8b-\	.	8dd\J	.	.	.	.	.	.	.	.	.	.	.	.	.	.	.	.	.	.
8G\	.	8b-\	.	8gg\L	.	4G\	-gnus	-gnus	4B-\	-gnus	-gnus	4g\	-gnus	4dd\	-gnus	.	.	.	.	.	.	.
8G\J	.	8b-\J	.	8gg\J	.	.	.	.	.	.	.	.	.	.	.	.	.	.	.	.	.	.
=2	=2	=2	=2	=2	=2	=2	=2	=2	=2	=2	=2	=2	=2	=2	=2	=2	=2	=2	=2	=2	=2	=2
*tremolo	*	*tremolo	*	*	*	*	*	*	*	*	*	*	*	*	*	*	*	*	*	*	*	*
8G\L	x 6	8b-\L	.	16ff\LL	.	4G\	De-	De-	4B-\	De-	De-	4g\	De-	4ee-\	De-	2.ryy	2.ryy	.	.	.	.	.
.	.	.	.	16ee-\	.	.	.	.	.	.	.	.	.	.	.	.	.	.	.	.	.	.
8G\	.	8b-\	.	16dd\	.	.	.	.	.	.	.	.	.	.	.	.	.	.	.	.	.	.
.	.	.	.	16ee-\JJ	.	.	.	.	.	.	.	.	.	.	.	.	.	.	.	.	.	.
*	*	*	*	*tremolo	*	*	*	*	*	*	*	*	*	*	*	*	*	*	*	*	*	*
!	!	!	!	!	!	!	!	!	!	!	!	!	!LO:MO:mod=-i,	!	!LO:MO:mod=-i,	!	!	!	!	!	!	!
8G\	.	8b-\	.	8ee-\L	.	4G\	-i	-i,	4B-\	-i	-i,	4g\	-i	4ee-\	-i	.	.	.	.	.	.	.
8G\	.	8b-\	.	8ee-\	.	.	.	.	.	.	.	.	.	.	.	.	.	.	.	.	.	.
8G\	.	8b-\	.	8ee-\	.	8r	.	.	8r	.	.	8r	.	8r	.	.	.	.	.	.	.	.
8G\J	.	8b-\J	.	8ee-\J	.	8G\	qui	qui	8B-\	qui	qui	8g\	qui	8ee-\	qui	.	.	.	.	.	.	.
*	*	*	*	*Xtremolo	*	*	*	*	*	*	*	*	*	*	*	*	*	*	*	*	*	*
=3	=3	=3	=3	=3	=3	=3	=3	=3	=3	=3	=3	=3	=3	=3	=3	=3	=3	=3	=3	=3	=3	=3
8G\L	x 6	8b-\L	.	8ee-\L	.	4G\	tol-	tol-	4B-\	tol-	tol-	4g\	tol-	4ee-\	tol-	2.ryy	2.ryy	.	.	.	.	.
8G\	x 5	8b-\	.	8ee-\	.	.	.	.	.	.	.	.	.	.	.	.	.	.	.	.	.	.
8G\	.	8b-\	.	8ee-\	.	4G\	-lis	-lis	4B-\	-lis	-lis	4g\	-lis	4ee-\	-lis	.	.	.	.	.	.	.
8G\	.	8b-\	.	8ee-\J	.	.	.	.	.	.	.	.	.	.	.	.	.	.	.	.	.	.
8G\	.	8b-\	.	8dd\L	.	4G\	pec-	pec-	4B-\	pec-	pec-	4g\	pec-	4dd\	pec-	.	.	.	.	.	.	.
8G\J	.	8b-\J	.	8dd\J	.	.	.	.	.	.	.	.	.	.	.	.	.	.	.	.	.	.
=4	=4	=4	=4	=4	=4	=4	=4	=4	=4	=4	=4	=4	=4	=4	=4	=4	=4	=4	=4	=4	=4	=4
!	!	!LO:MO:mod=!null:null	!	!	!	!	!	!	!	!	!	!	!	!	!	!	!	!	!	!	!	!
!	!	!LO:N:acc=#	!	!	!	!	!	!	!	!	!	!	!	!	!	!	!	!	!	!	!	!
8G\L	#4 #2	8en/L	.	2.cc#X\	.	2G\	-ca-	-ca-	2A\	-ca-	-ca-	2en\	-ca-	2cc#X\	-ca-	2.ryy	2.ryy	.	.	.	.	.
8G\	.	8e/	.	.	.	.	.	.	.	.	.	.	.	.	.	.	.	.	.	.	.	.
8G\	.	8e/	.	.	.	.	.	.	.	.	.	.	.	.	.	.	.	.	.	.	.	.
8G\	.	8e/	.	.	.	.	.	.	.	.	.	.	.	.	.	.	.	.	.	.	.	.
8G\	.	8e/	.	.	.	4G\	-ta	-ta	4A\	-ta	-ta	4e\	-ta	4cc#\	-ta	.	.	.	.	.	.	.
8G\J	.	8e/J	.	.	.	.	.	.	.	.	.	.	.	.	.	.	.	.	.	.	.	.
=5	=5	=5	=5	=5	=5	=5	=5	=5	=5	=5	=5	=5	=5	=5	=5	=5	=5	=5	=5	=5	=5	=5
!	!	!	!	!LO:SIC:o=8cc\L:v	!	!	!	!	!	!	!	!	!	!	!	!	!	!	!	!	!	!
!	!	!	!	!	!	!	!	!	!	!	!	!	!	!LO:SIC:o=8cc\L:v	!	!	!	!	!	!	!	!
8F\L	x 6	8a/L	.	8cc#\L	.	4F\	mun-	mun-	4A\	mun-	mun-	4f\	mun-	8cc#\L	mun-	2.ryy	2.ryy	0.r	.	.	0.r	.
8F\	.	8a/	.	8dd\J	.	.	.	.	.	.	.	.	.	8dd\J	.	.	.	.	.	.	.	.
!	!	!	!	!	!	!	!	!	!	!	!	!	!LO:MO:mod=-di,	!	!LO:MO:mod=-di,	!	!	!	!	!	!	!
8F\	.	8a/	.	8dd\L	.	4F\	-di	-di,	4A\	-di	-di,	4f\	-di	4dd\	-di	.	.	.	.	.	.	.
8F\	.	8a/	.	8dd\	.	.	.	.	.	.	.	.	.	.	.	.	.	.	.	.	.	.
8F\	.	8a/	.	8dd\	.	8r	.	.	8r	.	.	8r	.	8r	.	.	.	.	.	.	.	.
8F\J	.	8a/J	.	8dd\J	.	8F\	qui	qui	8A\	mi-	qui	8f\	qui	8dd\	qui	.	.	.	.	.	.	.
=6	=6	=6	=6	=6	=6	=6	=6	=6	=6	=6	=6	=6	=6	=6	=6	=6	=6	=6	=6	=6	=6	=6
*	*	*Xtremolo	*	*tremolo	*	*	*	*	*	*	*	*	*	*	*	*	*	*	*	*	*	*
!	!	!	!	!LO:LB:g=original	!	!	!	!	!	!	!	!	!	!LO:PB:g=original	!	!	!	!	!	!	!	!
8F\L	x 6	8a/L	.	8dd\L	.	4F\	tol-	tol-	4A\	-se-	tol-	4f\	tol-	4dd\	tol-	2.ryy	2.ryy	.	.	.	.	.
8F\	5 -	8a/	.	8dd\	.	.	.	.	.	.	.	.	.	.	.	.	.	.	.	.	.	.
8F\	.	8a/	.	8dd\	.	4F\	-lis	-lis	4A\	-re-	-lis	4f\	-lis	4dd\	-lis	.	.	.	.	.	.	.
8F\	.	8a/	.	8dd\J	.	.	.	.	.	.	.	.	.	.	.	.	.	.	.	.	.	.
*	*	*	*	*Xtremolo	*	*	*	*	*	*	*	*	*	*	*	*	*	*	*	*	*	*
8F\	.	8a-X/	.	8cc\L	.	4F\	pec-	pec-	4A-X\	-re	pec-	4f\	pec-	4ccn\	pec-	.	.	.	.	.	.	.
8F\J	.	8a-/J	.	8cc\J	.	.	.	.	.	.	.	.	.	.	.	.	.	.	.	.	.	.
=7	=7	=7	=7	=7	=7	=7	=7	=7	=7	=7	=7	=7	=7	=7	=7	=7	=7	=7	=7	=7	=7	=7
*	*	*tremolo	*	*	*	*	*	*	*	*	*	*	*	*	*	*	*	*	*	*	*	*
!	!	!	!	!	!	!	!	!	!	!	!	!LO:LB:g=original	!	!	!	!	!	!	!	!	!	!
8F\L	4# 2n	8d/L	.	2.bn\	.	2F\	-ca-	-ca-	2G/	no-	-ca-	2d\	-ca-	2bn\	-ca-	2.ryy	2.ryy	.	.	.	.	.
8F\	.	8d/	.	.	.	.	.	.	.	.	.	.	.	.	.	.	.	.	.	.	.	.
8F\	.	8d/	.	.	.	.	.	.	.	.	.	.	.	.	.	.	.	.	.	.	.	.
8F\	.	8d/	.	.	.	.	.	.	.	.	.	.	.	.	.	.	.	.	.	.	.	.
8F\	.	8d/	.	.	.	4F\	-ta	-ta	4G/	-bis	-ta	4d\	-ta	4b\	-ta	.	.	.	.	.	.	.
8F\J	.	8d/J	.	.	.	.	.	.	.	.	.	.	.	.	.	.	.	.	.	.	.	.
=8	=8	=8	=8	=8	=8	=8	=8	=8	=8	=8	=8	=8	=8	=8	=8	=8	=8	=8	=8	=8	=8	=8
!	!	!	!	!	!	!	!	!	!	!	!LO:MO:mod=*null:null	!	!	!	!	!	!	!	!	!	!	!
*	*	*Xtremolo	*	*	*	*	*	*	*	*ij	*ij	*	*	*	*	*	*	*	*	*	*	*
!LO:LB:g=original	!	!LO:LB:g=original	!	!	!	!LO:LB:g=original	!	!	!LO:LB:g=original	!	!	!	!	!	!	!	!	!	!	!	!	!
8E-\L	x 6	16e-/LL	.	16cc\LL	.	4E-\	mun-	mun-	4G/	no-	mun-	4e-\	mun-	4cc\	mun-	2.ryy	2.ryy	.	.	.	.	.
.	.	16f/	.	16dd\	.	.	.	.	.	.	.	.	.	.	.	.	.	.	.	.	.	.
!	!	!	!	!LO:SIC:o=16ee-X\:v	!	!	!	!	!	!	!	!	!	!	!	!	!	!	!	!	!	!
8E-\	.	16g/	.	16ee-\	.	.	.	.	.	.	.	.	.	.	.	.	.	.	.	.	.	.
.	.	16f/JJ	.	16dd\JJ	.	.	.	.	.	.	.	.	.	.	.	.	.	.	.	.	.	.
*	*	*	*	*tremolo	*	*	*	*	*	*	*	*	*	*	*	*	*	*	*	*	*	*
!	!	!	!	!	!	!	!	!	!	!	!	!	!LO:MO:mod=-di,	!	!LO:MO:mod=-di,	!	!	!	!	!	!	!
8E-\	.	8e-/L	.	8cc\L	.	4E-\	-di	-di,	4G/	-bis	-di,	4e-\	-di	4cc\	-di	.	.	.	.	.	.	.
*	*	*	*	*	*	*	*	*	*	*Xij	*Xij	*	*	*	*	*	*	*	*	*	*	*
8E-\	.	8g/	.	8cc\	.	.	.	.	.	.	.	.	.	.	.	.	.	.	.	.	.	.
8E-\	.	8g/	.	8cc\	.	4r	.	.	4r	.	.	4r	.	4r	.	.	.	.	.	.	.	.
8E-\J	.	8g/J	.	8cc\J	.	.	.	.	.	.	.	.	.	.	.	.	.	.	.	.	.	.
*	*	*	*	*Xtremolo	*	*	*	*	*	*	*	*	*	*	*	*	*	*	*	*	*	*
=9	=9	=9	=9	=9	=9	=9	=9	=9	=9	=9	=9	=9	=9	=9	=9	=9	=9	=9	=9	=9	=9	=9
!	!	!	!	!	!	!	!	!	!LO:SIC:o=2Bn\:v	!	!	!	!	!	!	!	!	!	!	!	!	!
8En\L	6 5	2b- 2g/	.	4.gg\	.	2En\	mi-	mi-	2B-\	a-	mi-	2g\	mi-	2cc\	mi-	2.ryy	2.ryy	0.r	.	.	0.r	.
8E\	.	.	.	.	.	.	.	.	.	.	.	.	.	.	.	.	.	.	.	.	.	.
8E\	.	.	.	.	.	.	.	.	.	.	.	.	.	.	.	.	.	.	.	.	.	.
8E\	.	.	.	8een\	.	.	.	.	.	.	.	.	.	.	.	.	.	.	.	.	.	.
!	!	!	!	!	!	!	!	!	!LO:SIC:o=4B\:v	!	!	!	!	!	!	!	!	!	!	!	!	!
8E\	.	8g/L	.	8cc\L	.	4E\	-se-	-se-	4B-\	-gnus	-se-	4g\	-se-	4cc\	-se-	.	.	.	.	.	.	.
8E\J	.	8g/J	.	8b-\J	.	.	.	.	.	.	.	.	.	.	.	.	.	.	.	.	.	.
*Xtremolo	*	*	*	*	*	*	*	*	*	*	*	*	*	*	*	*	*	*	*	*	*	*
=10	=10	=10	=10	=10	=10	=10	=10	=10	=10	=10	=10	=10	=10	=10	=10	=10	=10	=10	=10	=10	=10	=10
8F\L	.	8f/L	.	8a\L	.	4F\	-re-	-re-	4A\	De-	-re-	2f\	-re-	4cc\	-re-	2.ryy	2.ryy	.	.	.	.	.
8F\	.	8f/J	.	8ff\J	.	.	.	.	.	.	.	.	.	.	.	.	.	.	.	.	.	.
*	*	*tremolo	*	*	*	*	*	*	*	*	*	*	*	*	*	*	*	*	*	*	*	*
8A\	6 5	8f/L	.	8ee-X\L	.	4A\	-re	.	4c\	-i	.	.	.	4ee-X\	.	.	.	.	.	.	.	.
8A\	.	8f/	.	8ee-\J	.	.	.	.	.	.	.	.	.	.	.	.	.	.	.	.	.	.
8B-\	.	8f/	.	8dd\L	.	4B-\	.	-re	4B-\	qui	-re	4f\	-re	4dd\	-re	.	.	.	.	.	.	.
8B-\J	.	8f/J	.	8dd\J	.	.	.	.	.	.	.	.	.	.	.	.	.	.	.	.	.	.
*	*	*Xtremolo	*	*	*	*	*	*	*	*	*	*	*	*	*	*	*	*	*	*	*	*
=11	=11	=11	=11	=11	=11	=11	=11	=11	=11	=11	=11	=11	=11	=11	=11	=11	=11	=11	=11	=11	=11	=11
8E-\L	x 6	8g/L	.	8cc\L	.	4E-\	no-	no-	4e-\	tol-	no-	4g\	no-	8cc\L	no-	2.ryy	2.ryy	.	.	.	.	.
8E-\J	.	8e-/	.	16ee-\L	.	.	.	.	.	.	.	.	.	16ee-\L	.	.	.	.	.	.	.	.
.	.	.	.	16cc\JJ	.	.	.	.	.	.	.	.	.	16cc\JJ	.	.	.	.	.	.	.	.
*tremolo	*	*	*	*	*	*	*	*	*	*	*	*	*	*	*	*	*	*	*	*	*	*
8F\L	6 4	8d/	.	8b-/L	.	2F\	.	.	4d\	.	.	2f\	.	4b-\	.	.	.	.	.	.	.	.
8F\	.	8d/	.	8b-/	.	.	.	.	.	.	.	.	.	.	.	.	.	.	.	.	.	.
8F\	5 3	8c/	.	8a/	.	.	.	.	4c\	.	.	.	.	4a\	.	.	.	.	.	.	.	.
8F\J	.	8c/J	.	8a/J	.	.	.	.	.	.	.	.	.	.	.	.	.	.	.	.	.	.
*Xtremolo	*	*	*	*	*	*	*	*	*	*	*	*	*	*	*	*	*	*	*	*	*	*
=12	=12	=12	=12	=12	=12	=12	=12	=12	=12	=12	=12	=12	=12	=12	=12	=12	=12	=12	=12	=12	=12	=12
!	!	!	!	!LO:MO:mod=!null:null	!	!	!	!	!	!	!	!	!	!	!	!	!	!	!	!	!	!
!	!	!	!	!LO:N:vis=8	!	!	!	!	!	!	!	!	!	!	!	!	!	!	!	!	!	!
!	!	!	!	!	!	!	!	!	!	!	!	!	!LO:MO:mod=-bis.	!	!LO:MO:mod=-bis.	!	!	!	!	!	!	!
4BB-/	.	4d/	.	4b-\	.	4BB-/	-bis	-bis.	4d\	-lis	-bis.	4f\	-bis	4b-\	-bis	2.ryy	2.ryy	.	.	.	.	.
4r	.	8B-/	.	16r	.	4r	.	.	4r	.	.	4r	.	4r	.	.	.	.	.	.	.	.
!	!	!	!	!	!LO:DY:a:t=p.:rj	!	!	!	!	!	!	!	!	!	!	!	!	!	!	!	!	!
.	.	.	.	16bb-\LL|	p	.	.	.	.	.	.	.	.	.	.	.	.	.	.	.	.	.
.	.	8r	.	(16een\	.	.	.	.	.	.	.	.	.	.	.	.	.	.	.	.	.	.
.	.	.	.	16ff\JJ)	.	.	.	.	.	.	.	.	.	.	.	.	.	.	.	.	.	.
!	!	!	!	!LO:LB:g=original	!	!	!	!	!	!	!	!	!	!	!	!	!	!	!	!	!	!
4r	.	4r	.	(16cc\LL	.	4r	.	.	4r	.	.	4r	.	4r	.	.	.	.	.	.	.	.
.	.	.	.	16dd\)	.	.	.	.	.	.	.	.	.	.	.	.	.	.	.	.	.	.
.	.	.	.	(16a\	.	.	.	.	.	.	.	.	.	.	.	.	.	.	.	.	.	.
.	.	.	.	16b-\JJ)	.	.	.	.	.	.	.	.	.	.	.	.	.	.	.	.	.	.
=13	=13	=13	=13	=13	=13	=13	=13	=13	=13	=13	=13	=13	=13	=13	=13	=13	=13	=13	=13	=13	=13	=13
*	*	*tremolo	*	*	*	*	*	*	*	*	*	*	*	*	*	*	*	*	*	*	*	*
!	!	!	!LO:DY:a:t=p.:rj	!	!	!	!	!	!	!	!	!	!	!	!	!	!	!	!	!	!	!LO:DY:a:t=p.:rj
!	!	!	!	!	!	!	!	!	!	!	!	!	!	!	!	!	!	!	!	!LO:DY:t= :mod=%s	!	!
!	!	!	!	!	!	!	!	!	!	!	!	!	!	!	!	!	!	!	!	!LO:MO:mod=!LO&colon;DY&colon;ed=brack	!	!
!	!	!	!	!	!	!	!	!	!	!	!	!	!	!	!	!	!	!	!	!null	!	!
8c\L	x 6	8f/L	p	(16b-/LL	.	0.r	.	.	0.r	.	.	0.r	.	0.r	.	2.ryy	2.ryy	2.f/	.	p	2.ff\	p
.	.	.	.	16a/)	.	.	.	.	.	.	.	.	.	.	.	.	.	.	.	.	.	.
8c\	.	8f/	.	(16g/	.	.	.	.	.	.	.	.	.	.	.	.	.	.	.	.	.	.
.	.	.	.	16f/JJ)	.	.	.	.	.	.	.	.	.	.	.	.	.	.	.	.	.	.
8A\	.	8f/	.	(16f/LL	.	.	.	.	.	.	.	.	.	.	.	.	.	.	.	.	.	.
.	.	.	.	16a/)	.	.	.	.	.	.	.	.	.	.	.	.	.	.	.	.	.	.
8A\J	.	8f/	.	(16cc/	.	.	.	.	.	.	.	.	.	.	.	.	.	.	.	.	.	.
.	.	.	.	16ee-/JJ)	.	.	.	.	.	.	.	.	.	.	.	.	.	.	.	.	.	.
8B-\L	.	8f/	.	(16ee-\LL	.	.	.	.	.	.	.	.	.	.	.	.	.	.	.	.	.	.
.	.	.	.	16dd\)	.	.	.	.	.	.	.	.	.	.	.	.	.	.	.	.	.	.
8d\J	x 6	8f/J	.	(16cc\	.	.	.	.	.	.	.	.	.	.	.	.	.	.	.	.	.	.
.	.	.	.	16b-\JJ)	.	.	.	.	.	.	.	.	.	.	.	.	.	.	.	.	.	.
=14	=14	=14	=14	=14	=14	=14	=14	=14	=14	=14	=14	=14	=14	=14	=14	=14	=14	=14	=14	=14	=14	=14
8c\L	x 6	8f/L	.	(16b-\LL	.	.	.	.	.	.	.	.	.	.	.	2.ryy	2.ryy	2.f/	.	.	2.ff\	.
.	.	.	.	16a\)	.	.	.	.	.	.	.	.	.	.	.	.	.	.	.	.	.	.
8c\	.	8f/	.	(16g\	.	.	.	.	.	.	.	.	.	.	.	.	.	.	.	.	.	.
.	.	.	.	16f\JJ)	.	.	.	.	.	.	.	.	.	.	.	.	.	.	.	.	.	.
8A\	6 5	8f/	.	(16f/LL	.	.	.	.	.	.	.	.	.	.	.	.	.	.	.	.	.	.
.	.	.	.	16a/)	.	.	.	.	.	.	.	.	.	.	.	.	.	.	.	.	.	.
8A\	.	8f/	.	(16cc/	.	.	.	.	.	.	.	.	.	.	.	.	.	.	.	.	.	.
.	.	.	.	16ee-/JJ)	.	.	.	.	.	.	.	.	.	.	.	.	.	.	.	.	.	.
8B-\	.	8f/	.	16ee-\LL	.	.	.	.	.	.	.	.	.	.	.	.	.	.	.	.	.	.
.	.	.	.	16dd\	.	.	.	.	.	.	.	.	.	.	.	.	.	.	.	.	.	.
8d\J	x 6	8f/J	.	16gg\	.	.	.	.	.	.	.	.	.	.	.	.	.	.	.	.	.	.
.	.	.	.	16ff\JJ	.	.	.	.	.	.	.	.	.	.	.	.	.	.	.	.	.	.
=15	=15	=15	=15	=15	=15	=15	=15	=15	=15	=15	=15	=15	=15	=15	=15	=15	=15	=15	=15	=15	=15	=15
8c\L	x 6	8f/L	.	16ff\LL	.	.	.	.	.	.	.	.	.	.	.	2.ryy	2.ryy	4f/	.	.	8ff\L	.
.	.	.	.	16ee-\	.	.	.	.	.	.	.	.	.	.	.	.	.	.	.	.	.	.
8c\	.	8f/	.	16dd\	.	.	.	.	.	.	.	.	.	.	.	.	.	.	.	.	8ee-\J	.
.	.	.	.	16ee-\JJ	.	.	.	.	.	.	.	.	.	.	.	.	.	.	.	.	.	.
8A\	6 5	8f/	.	4ee-\	.	.	.	.	.	.	.	.	.	.	.	.	.	4cc\	.	.	4ee-\	.
8A\	.	8f/	.	.	.	.	.	.	.	.	.	.	.	.	.	.	.	.	.	.	.	.
8B-\	.	8f/	.	4dd\	.	.	.	.	.	.	.	.	.	.	.	.	.	4b-\	.	.	4dd\	.
8d\J	.	8f/J	.	.	.	.	.	.	.	.	.	.	.	.	.	.	.	.	.	.	.	.
*	*	*Xtremolo	*	*	*	*	*	*	*	*	*	*	*	*	*	*	*	*	*	*	*	*
=16	=16	=16	=16	=16	=16	=16	=16	=16	=16	=16	=16	=16	=16	=16	=16	=16	=16	=16	=16	=16	=16	=16
!LO:LB:g=original	!	!	!	!	!	!	!	!	!	!	!	!	!	!	!	!	!	!	!	!	!	!
!LO:TX:a:t=P:mixedbeam:problem	!	!LO:LB:g=original	!	!	!	!	!	!	!	!	!	!	!	!	!	!	!	!	!	!	!	!
8E-\L	6 5	16f/LL	.	16dd\LL	.	.	.	.	.	.	.	.	.	.	.	2.ryy	2.ryy	4r	.	.	4r	.
.	.	16e-/	.	16cc\	.	.	.	.	.	.	.	.	.	.	.	.	.	.	.	.	.	.
8E-\	.	16g/	.	16ee-\	.	.	.	.	.	.	.	.	.	.	.	.	.	.	.	.	.	.
.	.	16e-/JJ	.	16cc\JJ	.	.	.	.	.	.	.	.	.	.	.	.	.	.	.	.	.	.
8F\	x 4	4d/	.	4b-/	.	.	.	.	.	.	.	.	.	.	.	.	.	4b-\	.	.	4dd\	.
8F\	.	.	.	.	.	.	.	.	.	.	.	.	.	.	.	.	.	.	.	.	.	.
8FF/	x 3	4c/	.	4a/	.	.	.	.	.	.	.	.	.	.	.	.	.	4a\	.	.	4cc\	.
8FF/J	.	.	.	.	.	.	.	.	.	.	.	.	.	.	.	.	.	.	.	.	.	.
=17	=17	=17	=17	=17	=17	=17	=17	=17	=17	=17	=17	=17	=17	=17	=17	=17	=17	=17	=17	=17	=17	=17
!LO:TX:a:t=P:problem=mixedbeam	!	!LO:TX:a:t=P:problem=mixedbeam	!LO:DY:a:t=for	!	!LO:DY:a:t=for.	!	!	!	!	!	!	!	!	!	!	!	!	!	!	!	!	!
8BB-/L	.	8d/L	f	8b-\L	f	2B-\	a-	A-	2d\	a-	A-	2b-\	A-	2ff\	A-	2.ryy	2.ryy	4b-\	.	.	4b-\	.
8B-\	.	8dd\	.	8ff\	.	.	.	.	.	.	.	.	.	.	.	.	.	.	.	.	.	.
8B-\	.	8dd\	.	8ff\	.	.	.	.	.	.	.	.	.	.	.	.	.	4r	.	.	4r	.
8B-\	.	8dd\	.	8ff\	.	.	.	.	.	.	.	.	.	.	.	.	.	.	.	.	.	.
8B-\	.	8dd\	.	8ff\	.	4B-\	-gnus	-gnus	4d\	-gnus	-gnus	4b-\	-gnus	4ff\	-gnus	.	.	4r	.	.	4r	.
8B-\J	.	8dd\J	.	8bb-\J	.	.	.	.	.	.	.	.	.	.	.	.	.	.	.	.	.	.
=18	=18	=18	=18	=18	=18	=18	=18	=18	=18	=18	=18	=18	=18	=18	=18	=18	=18	=18	=18	=18	=18	=18
*tremolo	*	*tremolo	*	*	*	*	*	*	*	*	*	*	*	*	*	*	*	*	*	*	*	*
!	!	!	!	!LO:LB:g=original	!	!	!	!	!	!	!	!	!	!LO:LB:g=original	!	!	!	!	!	!	!	!
8B-\L	x 4	8ee-\L	.	16aa\LL	.	4B-\	De-	De-	4e-\	De-	De-	4b-\	De-	4gg\	De-	2.ryy	2.ryy	0.r	.	.	0.r	.
.	.	.	.	16gg\	.	.	.	.	.	.	.	.	.	.	.	.	.	.	.	.	.	.
8B-\	.	8ee-\	.	16ff#X\	.	.	.	.	.	.	.	.	.	.	.	.	.	.	.	.	.	.
.	.	.	.	16gg\JJ	.	.	.	.	.	.	.	.	.	.	.	.	.	.	.	.	.	.
*	*	*	*	*tremolo	*	*	*	*	*	*	*	*	*	*	*	*	*	*	*	*	*	*
!	!	!	!	!	!	!	!	!	!	!	!	!	!LO:MO:mod=-i,	!	!LO:MO:mod=-i,	!	!	!	!	!	!	!
8B-\	.	8ee-\	.	8gg\L	.	4B-\	-i	-i,	4e-\	-i	-i,	4b-\	-i	4gg\	-i	.	.	.	.	.	.	.
8B-\	.	8ee-\	.	8gg\	.	.	.	.	.	.	.	.	.	.	.	.	.	.	.	.	.	.
8B-\	.	8ee-\	.	8gg\	.	8r	.	.	8r	.	.	8r	.	8r	.	.	.	.	.	.	.	.
8B-\J	.	8ee-\J	.	8gg\J	.	8B-\	qui	qui	8e-\	qui	qui	8b-\	qui	8gg\	qui	.	.	.	.	.	.	.
=19	=19	=19	=19	=19	=19	=19	=19	=19	=19	=19	=19	=19	=19	=19	=19	=19	=19	=19	=19	=19	=19	=19
!	!	!	!	!	!	!	!	!	!	!	!	!LO:LB:g=original	!	!	!	!	!	!	!	!	!	!
8B-\L	6 4	8ee-\L	.	8gg\L	.	4B-\	tol-	tol-	4e-\	tol-	tol-	4b-\	tol-	4gg\	tol-	2.ryy	2.ryy	.	.	.	.	.
8B-\	5 3	8ee-\	.	8gg\	.	.	.	.	.	.	.	.	.	.	.	.	.	.	.	.	.	.
8B-\	.	8ee-\	.	8gg\	.	4B-\	-lis	-lis	4e-\	-lis	-lis	4b-\	-lis	4gg\	-lis	.	.	.	.	.	.	.
8B-\	.	8ee-\J	.	8gg\J	.	.	.	.	.	.	.	.	.	.	.	.	.	.	.	.	.	.
*	*	*Xtremolo	*	*Xtremolo	*	*	*	*	*	*	*	*	*	*	*	*	*	*	*	*	*	*
8B-\	.	8b-\L	.	8ff\L	.	4B-\	pec-	pec-	4e-\	pec-	pec-	4b-\	pec-	4ff\	pec-	.	.	.	.	.	.	.
8B-\J	.	8b-\J	.	8ff\J	.	.	.	.	.	.	.	.	.	.	.	.	.	.	.	.	.	.
=20	=20	=20	=20	=20	=20	=20	=20	=20	=20	=20	=20	=20	=20	=20	=20	=20	=20	=20	=20	=20	=20	=20
*	*	*tremolo	*	*tremolo	*	*	*	*	*	*	*	*	*	*	*	*	*	*	*	*	*	*
!	!	!	!	!	!	!	!	!	!LO:LB:g=original	!	!	!	!	!	!	!	!	!	!	!	!	!
!	!	!LO:SIC:o=8cc\L:v	!	!	!	!	!	!	!	!	!	!	!	!	!	!	!	!	!	!	!	!
!	!	!	!	!	!	!	!	!	!LO:SIC:o=2c\:v	!	!	!	!	!	!	!	!	!	!	!	!	!
8B-\L	4# 2#	8cc#\L	.	8een\L	.	2B-\	-ca-	-ca-	2c#\	-ca-	-ca-	2g\	-ca-	2een\	-ca-	2.ryy	2.ryy	.	.	.	.	.
!	!	!LO:SIC:o=8cc\:v	!	!	!	!	!	!	!	!	!	!	!	!	!	!	!	!	!	!	!	!
8B-\	.	8cc#\	.	8ee\	.	.	.	.	.	.	.	.	.	.	.	.	.	.	.	.	.	.
!	!	!LO:SIC:o=8cc\:v	!	!	!	!	!	!	!	!	!	!	!	!	!	!	!	!	!	!	!	!
8B-\	.	8cc#\	.	8ee\	.	.	.	.	.	.	.	.	.	.	.	.	.	.	.	.	.	.
!	!	!LO:SIC:o=8cc\:v	!	!	!	!	!	!	!	!	!	!	!	!	!	!	!	!	!	!	!	!
8B-\	.	8cc#\	.	8ee\	.	.	.	.	.	.	.	.	.	.	.	.	.	.	.	.	.	.
!	!	!LO:SIC:o=8cc\:v	!	!	!	!	!	!	!	!	!	!	!	!	!	!	!	!	!	!	!	!
!	!	!	!	!	!	!	!	!	!LO:SIC:o=4c\:v	!	!	!	!	!	!	!	!	!	!	!	!	!
8B-\	.	8cc#\	.	8ee\	.	4B-\	-ta	-ta	4c#\	-ta	-ta	4g\	-ta	4ee\	-ta	.	.	.	.	.	.	.
!	!	!LO:SIC:o=8cc\J:v	!	!	!	!	!	!	!	!	!	!	!	!	!	!	!	!	!	!	!	!
8B-\J	.	8cc#\J	.	8ee\J	.	.	.	.	.	.	.	.	.	.	.	.	.	.	.	.	.	.
=21	=21	=21	=21	=21	=21	=21	=21	=21	=21	=21	=21	=21	=21	=21	=21	=21	=21	=21	=21	=21	=21	=21
!	!	!	!	!	!	!LO:LB:g=original	!	!	!	!	!	!	!	!	!	!	!	!	!	!	!	!
8A\L	x 6n	8cc\L	.	8ff\L	.	2A\	mun-	mun-	2c\	mun-	mun-	2a\	mun-	2ff\	mun-	2.ryy	2.ryy	.	.	.	.	.
8A\	.	8cc\	.	8ff\	.	.	.	.	.	.	.	.	.	.	.	.	.	.	.	.	.	.
8A\	x 5	8cc\	.	8ff\	.	.	.	.	.	.	.	.	.	.	.	.	.	.	.	.	.	.
8A\	.	8cc\	.	8ff\J	.	.	.	.	.	.	.	.	.	.	.	.	.	.	.	.	.	.
*	*	*	*	*Xtremolo	*	*	*	*	*	*	*	*	*	*	*	*	*	*	*	*	*	*
!	!	!	!	!	!	!	!	!	!	!	!	!	!LO:MO:mod=-di,	!	!LO:MO:mod=-di,	!	!	!	!	!	!	!
!	!	!	!	!	!	!	!	!	!	!	!	!	!	!LO:SIC:o=4ee-\:v	!	!	!	!	!	!	!	!
8A\	.	8cc\	.	8een\L	.	4A\	-di	-di,	4c\	-di	-di,	4a\	-di	4ee\	-di	.	.	.	.	.	.	.
8A\J	.	8cc\J	.	8ee\J	.	.	.	.	.	.	.	.	.	.	.	.	.	.	.	.	.	.
=22	=22	=22	=22	=22	=22	=22	=22	=22	=22	=22	=22	=22	=22	=22	=22	=22	=22	=22	=22	=22	=22	=22
*	*	*	*	*tremolo	*	*	*	*	*	*	*	*	*	*	*	*	*	*	*	*	*	*
8A\L	4# 2#	8bn\L	.	8dd#X\L	.	2A\	mi-	mi-	2Bn\	mi-	mi-	2f#X\	mi-	2dd#X\	mi-	2.ryy	2.ryy	0.r	.	.	0.r	.
8A\	.	8b\	.	8dd#\	.	.	.	.	.	.	.	.	.	.	.	.	.	.	.	.	.	.
8A\	.	8b\	.	8dd#\	.	.	.	.	.	.	.	.	.	.	.	.	.	.	.	.	.	.
8A\	.	8b\	.	8dd#\	.	.	.	.	.	.	.	.	.	.	.	.	.	.	.	.	.	.
8A\	.	8b\	.	8dd#\	.	4A\	-se-	-se-	4B\	-se-	-se-	4f#\	-se-	4dd#\	-se-	.	.	.	.	.	.	.
8A\J	.	8b\J	.	8dd#\J	.	.	.	.	.	.	.	.	.	.	.	.	.	.	.	.	.	.
=23	=23	=23	=23	=23	=23	=23	=23	=23	=23	=23	=23	=23	=23	=23	=23	=23	=23	=23	=23	=23	=23	=23
!	!	!LO:SIC:o=8b-\L:v	!	!	!	!	!	!	!	!	!	!	!	!	!	!	!	!	!	!	!	!
!	!	!	!	!	!	!	!	!	!	!	!	!LO:SIC:o=2gn\:v	!	!	!	!	!	!	!	!	!	!
8G\L	x 6\	8bn\L	.	8een\L	.	2G\	-re-	-re-	2Bn\	-re-	-re-	2g\	-re-	2ee-\	-re-	2.ryy	2.ryy	.	.	.	.	.
!	!	!LO:SIC:o=8b-\:v	!	!	!	!	!	!	!	!	!	!	!	!	!	!	!	!	!	!	!	!
8G\	.	8b\	.	8ee\	.	.	.	.	.	.	.	.	.	.	.	.	.	.	.	.	.	.
!	!	!LO:SIC:o=8b-\:v	!	!	!	!	!	!	!	!	!	!	!	!	!	!	!	!	!	!	!	!
8G\	x 5	8b\	.	8ee\	.	.	.	.	.	.	.	.	.	.	.	.	.	.	.	.	.	.
!	!	!LO:SIC:o=8b-\:v	!	!	!	!	!	!	!	!	!	!	!	!	!	!	!	!	!	!	!	!
8G\	.	8b\	.	8ee\J	.	.	.	.	.	.	.	.	.	.	.	.	.	.	.	.	.	.
*	*	*	*	*Xtremolo	*	*	*	*	*	*	*	*	*	*	*	*	*	*	*	*	*	*
!	!	!LO:SIC:o=8b-\:v	!	!	!	!	!	!	!	!	!	!	!	!	!	!	!	!	!	!	!	!
!	!	!	!	!	!	!	!	!	!	!	!	!	!LO:MO:mod=-re,	!	!LO:MO:mod=-re,	!	!	!	!	!	!	!
8G\	.	8b\	.	8ddn\L	.	4G\	-re	-re,	4B\	-re	-re,	4g\	-re	4ddn\	-re	.	.	.	.	.	.	.
!	!	!LO:SIC:o=8b-\J:v	!	!	!	!	!	!	!	!	!	!	!	!	!	!	!	!	!	!	!	!
8G\J	.	8b\J	.	8dd\J	.	.	.	.	.	.	.	.	.	.	.	.	.	.	.	.	.	.
=24	=24	=24	=24	=24	=24	=24	=24	=24	=24	=24	=24	=24	=24	=24	=24	=24	=24	=24	=24	=24	=24	=24
*	*	*	*	*tremolo	*	*	*ij	*ij	*	*	*	*	*ij	*	*ij	*	*	*	*	*	*	*
8G\L	4# 2#	8a/L	.	8cc#X\L	.	2G\	mi-	mi-	2A\	no-	mi-	2en\	mi-	2cc#X\	mi-	2.ryy	2.ryy	.	.	.	.	.
8G\	.	8a/	.	8cc#\	.	.	.	.	.	.	.	.	.	.	.	.	.	.	.	.	.	.
8G\	.	8a/	.	8cc#\	.	.	.	.	.	.	.	.	.	.	.	.	.	.	.	.	.	.
8G\	.	8a/	.	8cc#\	.	.	.	.	.	.	.	.	.	.	.	.	.	.	.	.	.	.
8G\	.	8a/	.	8cc#\	.	4G\	-se-	-se-	4A\	-bis	-se-	4e\	-se-	4cc#\	-se-	.	.	.	.	.	.	.
8G\J	.	8a/J	.	8cc#\J	.	.	.	.	.	.	.	.	.	.	.	.	.	.	.	.	.	.
=25	=25	=25	=25	=25	=25	=25	=25	=25	=25	=25	=25	=25	=25	=25	=25	=25	=25	=25	=25	=25	=25	=25
!	!	!	!	!	!	!	!	!	!	!	!LO:MO:mod=*null:null	!	!	!	!	!	!	!	!	!	!	!
*	*	*Xtremolo	*	*	*	*	*	*	*	*ij	*ij	*	*	*	*	*	*	*	*	*	*	*
!LO:LB:g=original	!	!LO:LB:g=original	!	!	!	!	!	!	!	!	!	!	!	!	!	!	!	!	!	!	!	!
8F\L	x 6	8a/L	.	8dd\L	.	2F\	-re-	-re-	2A\	no-	-re-	2fn\	-re-	2ddn\	-re-	2.ryy	2.ryy	.	.	.	.	.
8F\	.	8a/	.	8dd\	.	.	.	.	.	.	.	.	.	.	.	.	.	.	.	.	.	.
8F\	.	8a/	.	8dd\	.	.	.	.	.	.	.	.	.	.	.	.	.	.	.	.	.	.
8F\J	.	8a/	.	8dd\J	.	.	.	.	.	.	.	.	.	.	.	.	.	.	.	.	.	.
*Xtremolo	*	*	*	*Xtremolo	*	*	*	*	*	*	*	*	*	*	*	*	*	*	*	*	*	*
8G#X\L	.	8f/	.	8dd\L	.	4G#X\	-re	-re	4Bn\	-bis	-re	4f\	-re	4dd\	-re	.	.	.	.	.	.	.
*	*	*	*	*	*	*	*Xij	*Xij	*	*	*	*	*Xij	*	*Xij	*	*	*	*	*	*	*
8G#\J	4 7	8f/J	.	8dd\J	.	.	.	.	.	.	.	.	.	.	.	.	.	.	.	.	.	.
=26	=26	=26	=26	=26	=26	=26	=26	=26	=26	=26	=26	=26	=26	=26	=26	=26	=26	=26	=26	=26	=26	=26
*tremolo	*	*tremolo	*	*tremolo	*	*	*	*	*	*	*	*	*	*	*	*	*	*	*	*	*	*
!	!	!	!	!LO:LB:g=original	!	!	!	!	!	!	!	!	!	!	!	!	!	!	!	!	!	!
8A\L	5 4	8en/L	.	8dd\L	.	2.A\	no-	no-	2.A\	no-	no-	2.en\	no-	2dd\	no-	2.ryy	2.ryy	1.r	.	.	1.r	.
8A\	.	8e/	.	8dd\	.	.	.	.	.	.	.	.	.	.	.	.	.	.	.	.	.	.
8A\	.	8e/	.	8dd\	.	.	.	.	.	.	.	.	.	.	.	.	.	.	.	.	.	.
8A\J	.	8e/	.	8dd\J	.	.	.	.	.	.	.	.	.	.	.	.	.	.	.	.	.	.
*Xtremolo	*	*	*	*Xtremolo	*	*	*	*	*	*	*	*	*	*	*	*	*	*	*	*	*	*
8AA/L	x #	8e/	.	8cc#X\L	.	.	.	.	.	.	.	.	.	4cc#X\	.	.	.	.	.	.	.	.
8AA/J	.	8e/J	.	8cc#\J	.	.	.	.	.	.	.	.	.	.	.	.	.	.	.	.	.	.
*	*	*Xtremolo	*	*	*	*	*	*	*	*	*	*	*	*	*	*	*	*	*	*	*	*
=27	=27	=27	=27	=27	=27	=27	=27	=27	=27	=27	=27	=27	=27	=27	=27	=27	=27	=27	=27	=27	=27	=27
!	!	!	!	!	!	!	!	!	!	!	!	!LO:LB:g=original	!	!LO:LB:g=original	!	!	!	!	!	!	!	!
!	!	!	!	!	!	!	!	!	!	!	!	!	!LO:MO:mod=-bis.	!	!LO:MO:mod=-bis.	!	!	!	!	!	!	!
4D\	.	4f/	.	4dd\	.	4D\	-bis	-bis.	4A\	-bis	-bis.	4f\	-bis	4dd\	-bis	2.ryy	2.ryy	.	.	.	.	.
*	*	*	*	*	*	*	*	*	*	*Xij	*Xij	*	*	*	*	*	*	*	*	*	*	*
4DD/	.	8d/	.	16r	.	4r	.	.	4r	.	.	4r	.	4r	.	.	.	.	.	.	.	.
!	!	!	!	!	!LO:DY:t= :mod=%s	!	!	!	!	!	!	!	!	!	!	!	!	!	!	!	!	!
!	!	!	!	!	!LO:MO:mod=!LO&colon;DY&colon;ed=brack	!	!	!	!	!	!	!	!	!	!	!	!	!	!	!	!	!
!	!	!	!	!	!null	!	!	!	!	!	!	!	!	!	!	!	!	!	!	!	!	!
.	.	.	.	16aa\LL	p	.	.	.	.	.	.	.	.	.	.	.	.	.	.	.	.	.
.	.	8r	.	16een\	.	.	.	.	.	.	.	.	.	.	.	.	.	.	.	.	.	.
.	.	.	.	16ff\JJ	.	.	.	.	.	.	.	.	.	.	.	.	.	.	.	.	.	.
4r	.	4r	.	16cc#X\LL	.	4r	.	.	4r	.	.	4r	.	4r	.	.	.	.	.	.	.	.
.	.	.	.	16dd\	.	.	.	.	.	.	.	.	.	.	.	.	.	.	.	.	.	.
.	.	.	.	16g#X\	.	.	.	.	.	.	.	.	.	.	.	.	.	.	.	.	.	.
.	.	.	.	16a\JJ	.	.	.	.	.	.	.	.	.	.	.	.	.	.	.	.	.	.
=28	=28	=28	=28	=28	=28	=28	=28	=28	=28	=28	=28	=28	=28	=28	=28	=28	=28	=28	=28	=28	=28	=28
!	!	!	!LO:DY:a:t=p.	!	!	!	!	!	!	!	!	!	!	!	!	!	!	!	!	!	!	!
8En\L	x 6\	8A/	p	16gn/LL	.	1.r	.	.	1.r	.	.	1.r	.	1.r	.	2.ryy	2.ryy	2.a\	.	.	2.aa\	.
.	.	.	.	16A/	.	.	.	.	.	.	.	.	.	.	.	.	.	.	.	.	.	.
8E\	.	4A/	.	16c#X/	.	.	.	.	.	.	.	.	.	.	.	.	.	.	.	.	.	.
!	!	!	!	!LO:SIC:o=16e-/JJ:v	!	!	!	!	!	!	!	!	!	!	!	!	!	!	!	!	!	!
.	.	.	.	16en/JJ	.	.	.	.	.	.	.	.	.	.	.	.	.	.	.	.	.	.
8C#X\	6 5	.	.	16a\LL	.	.	.	.	.	.	.	.	.	.	.	.	.	.	.	.	.	.
.	.	.	.	16cc#X\	.	.	.	.	.	.	.	.	.	.	.	.	.	.	.	.	.	.
!	!	!	!	!LO:SIC:o=16ee-\:v	!	!	!	!	!	!	!	!	!	!	!	!	!	!	!	!	!	!
8C#\J	.	4A/	.	16een\	.	.	.	.	.	.	.	.	.	.	.	.	.	.	.	.	.	.
.	.	.	.	16gg\JJ	.	.	.	.	.	.	.	.	.	.	.	.	.	.	.	.	.	.
8D\L	.	.	.	16gg\LL	.	.	.	.	.	.	.	.	.	.	.	.	.	.	.	.	.	.
.	.	.	.	16ff\	.	.	.	.	.	.	.	.	.	.	.	.	.	.	.	.	.	.
!	!	!	!	!LO:SIC:o=16ee-\:v	!	!	!	!	!	!	!	!	!	!	!	!	!	!	!	!	!	!
8F\J	x 6	8A/	.	16ee\	.	.	.	.	.	.	.	.	.	.	.	.	.	.	.	.	.	.
.	.	.	.	16dd\JJ	.	.	.	.	.	.	.	.	.	.	.	.	.	.	.	.	.	.
=29	=29	=29	=29	=29	=29	=29	=29	=29	=29	=29	=29	=29	=29	=29	=29	=29	=29	=29	=29	=29	=29	=29
!LO:SIC:o=8E-\L:v	!	!	!	!	!	!	!	!	!	!	!	!	!	!	!	!	!	!	!	!	!	!
8En\L	x 6\	8A/	.	16dd\LL	.	.	.	.	.	.	.	.	.	.	.	2.ryy	2.ryy	2.a\	.	.	2.aa\	.
.	.	.	.	16cc#X\	.	.	.	.	.	.	.	.	.	.	.	.	.	.	.	.	.	.
!LO:SIC:o=8E-\:v	!	!	!	!	!	!	!	!	!	!	!	!	!	!	!	!	!	!	!	!	!	!
8En\	.	4A/	.	16b-\	.	.	.	.	.	.	.	.	.	.	.	.	.	.	.	.	.	.
.	.	.	.	16a\JJ	.	.	.	.	.	.	.	.	.	.	.	.	.	.	.	.	.	.
8C#X\	6 5	.	.	16a\LL	.	.	.	.	.	.	.	.	.	.	.	.	.	.	.	.	.	.
.	.	.	.	16cc#\	.	.	.	.	.	.	.	.	.	.	.	.	.	.	.	.	.	.
!	!	!	!	!LO:SIC:o=16ee-\:v	!	!	!	!	!	!	!	!	!	!	!	!	!	!	!	!	!	!
8C#\	.	4A/	.	16een\	.	.	.	.	.	.	.	.	.	.	.	.	.	.	.	.	.	.
.	.	.	.	16gg\JJ	.	.	.	.	.	.	.	.	.	.	.	.	.	.	.	.	.	.
8D\	.	.	.	16gg\LL	.	.	.	.	.	.	.	.	.	.	.	.	.	.	.	.	.	.
.	.	.	.	16ff\	.	.	.	.	.	.	.	.	.	.	.	.	.	.	.	.	.	.
!	!	!	!	!LO:SIC:o=16ee-\:v	!	!	!	!	!	!	!	!	!	!	!	!	!	!	!	!	!	!
8F\J	x 6	8A/	.	16ee\	.	.	.	.	.	.	.	.	.	.	.	.	.	.	.	.	.	.
.	.	.	.	16dd\JJ	.	.	.	.	.	.	.	.	.	.	.	.	.	.	.	.	.	.
=30	=30	=30	=30	=30	=30	=30	=30	=30	=30	=30	=30	=30	=30	=30	=30	=30	=30	=30	=30	=30	=30	=30
*	*	*tremolo	*	*	*	*	*	*	*	*	*	*	*	*	*	*	*	*	*	*	*	*
!LO:TX:a:t=P:problem=mixedbeam	!	!	!	!LO:LB:g=original	!	!	!	!	!	!	!	!	!	!	!	!	!	!	!	!	!LO:LB:g=original	!
.	.	.	.	.	.	.	.	.	.	.	.	.	.	.	.	.	.	.	.	.	8qqaa/	.
8G\L	6 5	8d/L	.	16cc\LL	.	2.r	.	.	2.r	.	.	2.r	.	2.r	.	2.ryy	2.ryy	4dd\	.	.	8bb-\L	.
.	.	.	.	16b-X\	.	.	.	.	.	.	.	.	.	.	.	.	.	.	.	.	.	.
8G\	.	8d/	.	16a\	.	.	.	.	.	.	.	.	.	.	.	.	.	.	.	.	16aa\L	.
.	.	.	.	16g\JJ	.	.	.	.	.	.	.	.	.	.	.	.	.	.	.	.	16gg\JJ	.
8A\	x 4	8d/	.	4f/	.	.	.	.	.	.	.	.	.	.	.	.	.	4dd\	.	.	4ff\	.
8A\	.	8d/J	.	.	.	.	.	.	.	.	.	.	.	.	.	.	.	.	.	.	.	.
*	*	*Xtremolo	*	*	*	*	*	*	*	*	*	*	*	*	*	*	*	*	*	*	*	*
!	!	!	!	!	!	!	!	!	!	!	!	!	!	!	!	!	!	!	!	!	!LO:SIC:o=4ee-\:v	!
!	!	!	!	!	!	!	!	!	!	!	!	!	!	!	!	!	!	!LO:SIC:o=4cc\:v	!	!	!	!
8AA/	x #	8c#X/L	.	4en/	.	.	.	.	.	.	.	.	.	.	.	.	.	4cc#\	.	.	4een\	.
8AA/J	.	8c#/J	.	.	.	.	.	.	.	.	.	.	.	.	.	.	.	.	.	.	.	.
=31	=31	=31	=31	=31	=31	=31	=31	=31	=31	=31	=31	=31	=31	=31	=31	=31	=31	=31	=31	=31	=31	=31
*tremolo	*	*	*	*	*	*	*	*	*	*	*	*	*	*	*	*	*	*	*	*	*	*
!LO:LB:g=original	!	!	!	!LO:SIC:o=8e-/L:v	!	!	!	!	!	!	!	!	!	!	!	!	!	!LO:LB:g=original	!	!	!	!
!	!	!	!LO:DY:a:t=for	!LO:TX:a:t=P:problem=mixedbeam	!	!	!	!	!	!	!	!	!	!	!	!	!	!	!	!	!	!
!	!	!	!	!	!LO:DY:t= :mod=%s	!	!	!	!	!	!	!	!	!	!	!	!	!	!	!	!	!
!	!	!	!	!	!LO:MO:mod=!LO&colon;DY&colon;ed=brack	!	!	!	!	!	!	!	!	!	!	!	!	!	!	!	!	!
!	!	!	!	!	!null	!	!	!	!	!	!	!	!	!	!	!	!	!	!	!	!	!
8D\L	.	8d/L	f	8d\L	f	2D\	A-	A-	2d\	a-	A-	2a\	A-	2ff\	A-	2.ryy	2.ryy	4dd\	.	.	4dd\	.
8D\	.	8a/J	.	8ff\J	.	.	.	.	.	.	.	.	.	.	.	.	.	.	.	.	.	.
*	*	*tremolo	*	*tremolo	*	*	*	*	*	*	*	*	*	*	*	*	*	*	*	*	*	*
8D\	.	8a/L	.	8ff\L	.	.	.	.	.	.	.	.	.	.	.	.	.	4r	.	.	4r	.
8D\	.	8a/	.	8ff\	.	.	.	.	.	.	.	.	.	.	.	.	.	.	.	.	.	.
8D\	.	8a/	.	8ff\	.	4D\	-gnus	-gnus	4d\	-gnus	-gnus	4a\	-gnus	4ff\	-gnus	.	.	4r	.	.	4r	.
8D\J	.	8a/J	.	8ff\J	.	.	.	.	.	.	.	.	.	.	.	.	.	.	.	.	.	.
*	*	*	*	*Xtremolo	*	*	*	*	*	*	*	*	*	*	*	*	*	*	*	*	*	*
=32	=32	=32	=32	=32	=32	=32	=32	=32	=32	=32	=32	=32	=32	=32	=32	=32	=32	=32	=32	=32	=32	=32
!	!	!	!	!	!	!LO:LB:g=original	!	!	!LO:LB:g=original	!	!	!	!	!	!	!	!	!	!	!	!	!
8A\L	6 5-	8f/L	.	16ff\LL	.	4A\	De-	De-	4c\	De-	De-	4f\	De-	8ff\L	De-	2.ryy	2.ryy	2.cc\	.	.	2.ee-\	.
.	.	.	.	16ee-X\	.	.	.	.	.	.	.	.	.	.	.	.	.	.	.	.	.	.
8A\	.	8f/	.	16dd\	.	.	.	.	.	.	.	.	.	8ee-\J	.	.	.	.	.	.	.	.
.	.	.	.	16ee-\JJ	.	.	.	.	.	.	.	.	.	.	.	.	.	.	.	.	.	.
*	*	*	*	*tremolo	*	*	*	*	*	*	*	*	*	*	*	*	*	*	*	*	*	*
!	!	!	!	!	!	!	!	!	!	!	!	!	!LO:MO:mod=-i,	!	!LO:MO:mod=-i,	!	!	!	!	!	!	!
8A\	.	8f/	.	8ee-\L	.	4A\	-i	-i,	4c\	-i	-i,	4f\	-i	4.ee-\	-i	.	.	.	.	.	.	.
8A\	.	8f/	.	8ee-\	.	.	.	.	.	.	.	.	.	.	.	.	.	.	.	.	.	.
8A\	.	8f/	.	8ee-\	.	4A\	qui	qui	4c\	qui	qui	4f\	qui	.	.	.	.	.	.	.	.	.
8A\J	.	8f/J	.	8ee-\J	.	.	.	.	.	.	.	.	.	8ee-\	qui	.	.	.	.	.	.	.
*	*	*	*	*Xtremolo	*	*	*	*	*	*	*	*	*	*	*	*	*	*	*	*	*	*
=33	=33	=33	=33	=33	=33	=33	=33	=33	=33	=33	=33	=33	=33	=33	=33	=33	=33	=33	=33	=33	=33	=33
!	!	!LO:LB:g=original	!	!	!	!	!	!	!	!	!	!	!	!	!	!	!	!	!	!	!	!
8B-\L	.	8f/L	.	16ee-\LL	.	4B-\	tol-	tol-	4B-\	tol-	tol-	4f\	tol-	8ee-\L	tol-	2.ryy	2.ryy	2dd\	.	.	2dd\	.
.	.	.	.	16dd\	.	.	.	.	.	.	.	.	.	.	.	.	.	.	.	.	.	.
8B-\	.	8f/	.	16cc\	.	.	.	.	.	.	.	.	.	8dd\J	.	.	.	.	.	.	.	.
.	.	.	.	16dd\JJ	.	.	.	.	.	.	.	.	.	.	.	.	.	.	.	.	.	.
*	*	*	*	*tremolo	*	*	*	*	*	*	*	*	*	*	*	*	*	*	*	*	*	*
8B-\	.	8f/	.	8dd\L	.	4B-\	-lis	-lis	4B-\	-lis	-lis	4f\	-lis	4.dd\	-lis	.	.	.	.	.	.	.
8B-\J	.	8f/	.	8dd\	.	.	.	.	.	.	.	.	.	.	.	.	.	.	.	.	.	.
*Xtremolo	*	*	*	*	*	*	*	*	*	*	*	*	*	*	*	*	*	*	*	*	*	*
8BB-/L	.	8f/	.	8dd\	.	4BB-/	pec-	pec-	4B-\	pec-	pec-	4f\	pec-	.	.	.	.	4dd\	.	.	4dd\	.
8BB-/J	.	8f/J	.	8dd\J	.	.	.	.	.	.	.	.	.	8dd\	pec-	.	.	.	.	.	.	.
*	*	*	*	*Xtremolo	*	*	*	*	*	*	*	*	*	*	*	*	*	*	*	*	*	*
=34	=34	=34	=34	=34	=34	=34	=34	=34	=34	=34	=34	=34	=34	=34	=34	=34	=34	=34	=34	=34	=34	=34
*tremolo	*	*	*	*	*	*	*	*	*	*	*	*	*	*	*	*	*	*	*	*	*	*
8E-\L	x 7	8g/L	.	8dd\L	.	2E-\	-ca-	-ca-	4B-\	-ca-	-ca-	2g\	-ca-	4dd\	-ca-	2.ryy	2.ryy	2.gg\	.	.	4dd\	.
8E-\	x 6	8g/	.	8dd\	.	.	.	.	.	.	.	.	.	.	.	.	.	.	.	.	.	.
8E-\	.	8g/	.	8cc\	.	.	.	.	4c\	-ta	.	.	.	4cc\	.	.	.	.	.	.	4cc\	.
8E-\J	.	8g/	.	8cc\J	.	.	.	.	.	.	.	.	.	.	.	.	.	.	.	.	.	.
*Xtremolo	*	*	*	*	*	*	*	*	*	*	*	*	*	*	*	*	*	*	*	*	*	*
8En\L	.	8g/	.	8b-\L	.	4En\	-ta	-ta	4d\	.	-ta	4g\	-ta	4b-\	-ta	.	.	.	.	.	4b-\	.
8E\J	.	8g/J	.	8b-\J	.	.	.	.	.	.	.	.	.	.	.	.	.	.	.	.	.	.
=35	=35	=35	=35	=35	=35	=35	=35	=35	=35	=35	=35	=35	=35	=35	=35	=35	=35	=35	=35	=35	=35	=35
.	.	.	.	8qqcc/	.	.	.	.	.	.	.	.	.	.	.	.	.	.	.	.	.	.
!LO:SIC:o=4E-\:v	!	!	!	!	!	!	!	!	!	!	!	!	!	!	!	!	!	!	!	!	!	!
4F\	.	4c/	.	8b-/L	.	4F\	mun-	mun-	4c\	mun-	mun-	4g\	mun-	4b-\	mun-	2.ryy	2.ryy	4gg\	.	.	4b-\	.
.	.	.	.	16a/L	.	.	.	.	.	.	.	.	.	.	.	.	.	.	.	.	.	.
.	.	.	.	16b-/JJ	.	.	.	.	.	.	.	.	.	.	.	.	.	.	.	.	.	.
!	!	!	!LO:DY:a:t=p.	!	!LO:DY:a:t=p.	!	!	!	!	!	!	!	!	!	!	!	!	!	!	!	!	!
!	!	!	!	!	!	!	!	!	!	!	!	!	!LO:MO:mod=-di,	!	!LO:MO:mod=-di,	!	!	!	!	!	!	!
4FF/	.	8c/L	p	8a\L	p	4F\	-di	-di,	4c\	-di	-di,	4f\	-di	4a\	-di	.	.	4ff\	.	.	4a\	.
.	.	8f/	.	8ff\	.	.	.	.	.	.	.	.	.	.	.	.	.	.	.	.	.	.
4r	.	8f/	.	8ff\	.	4r	.	.	4r	.	.	4r	.	4r	.	.	.	4r	.	.	4r	.
.	.	8f/J	.	8ff\J	.	.	.	.	.	.	.	.	.	.	.	.	.	.	.	.	.	.
=36	=36	=36	=36	=36	=36	=36	=36	=36	=36	=36	=36	=36	=36	=36	=36	=36	=36	=36	=36	=36	=36	=36
!	!	!	!	!LO:LB:g=original	!	!	!	!	!	!	!	!	!	!	!	!	!	!	!	!	!	!
4r	.	2.f/	.	16ff\LL	.	1.r	.	.	1.r	.	.	1.r	.	1.r	.	2.ryy	2.ryy	1.r	.	.	1.r	.
.	.	.	.	16ee-X\	.	.	.	.	.	.	.	.	.	.	.	.	.	.	.	.	.	.
.	.	.	.	16dd\	.	.	.	.	.	.	.	.	.	.	.	.	.	.	.	.	.	.
.	.	.	.	16ee-\JJ	.	.	.	.	.	.	.	.	.	.	.	.	.	.	.	.	.	.
(4A\	.	.	.	4ee-\	.	.	.	.	.	.	.	.	.	.	.	.	.	.	.	.	.	.
4B-\)	.	.	.	4dd\	.	.	.	.	.	.	.	.	.	.	.	.	.	.	.	.	.	.
=37	=37	=37	=37	=37	=37	=37	=37	=37	=37	=37	=37	=37	=37	=37	=37	=37	=37	=37	=37	=37	=37	=37
4r	.	2.g/	.	16dd\LL	.	.	.	.	.	.	.	.	.	.	.	2.ryy	2.ryy	.	.	.	.	.
.	.	.	.	16cc\	.	.	.	.	.	.	.	.	.	.	.	.	.	.	.	.	.	.
.	.	.	.	16b-\	.	.	.	.	.	.	.	.	.	.	.	.	.	.	.	.	.	.
.	.	.	.	16cc\JJ	.	.	.	.	.	.	.	.	.	.	.	.	.	.	.	.	.	.
4E-\	.	.	.	4cc\	.	.	.	.	.	.	.	.	.	.	.	.	.	.	.	.	.	.
4En\	.	.	.	4b-\	.	.	.	.	.	.	.	.	.	.	.	.	.	.	.	.	.	.
=38	=38	=38	=38	=38	=38	=38	=38	=38	=38	=38	=38	=38	=38	=38	=38	=38	=38	=38	=38	=38	=38	=38
.	.	.	.	16qqcc/	.	.	.	.	.	.	.	.	.	.	.	.	.	.	.	.	.	.
4F\	.	4g/	.	8b-\L	.	4r	.	.	4r	.	.	4r	.	4r	.	2.ryy	2.ryy	4r	.	.	4r	.
.	.	.	.	16a\L	.	.	.	.	.	.	.	.	.	.	.	.	.	.	.	.	.	.
.	.	.	.	16b-\JJ	.	.	.	.	.	.	.	.	.	.	.	.	.	.	.	.	.	.
4FF/	.	4f/	.	4a/	.	4r	.	.	4r	.	.	4r	.	4r	.	.	.	4r	.	.	4r	.
4r	.	4r	.	4r	.	4F\	pec-	pec-	4A\	pec-	pec-	4f\	pec-	4cc\	pec-	.	.	4a/	.	.	4cc\	.
=39	=39	=39	=39	=39	=39	=39	=39	=39	=39	=39	=39	=39	=39	=39	=39	=39	=39	=39	=39	=39	=39	=39
!LO:LB:g=original	!	!	!	!	!	!	!	!	!	!	!	!LO:LB:g=original	!	!LO:LB:g=original	!	!	!	!	!	!	!	!
!	!	!	!	!	!	!LO:SIC:o=2.F\:v	!	!	!	!	!	!LO:SIC:o=2.f\:v	!	!	!	!	!	!	!	!	!	!
1.r	.	1.r	.	1.r	.	[2.F\	-ca-	-ca-	2.ryy	.	.	[2.f\	-ca-	2dd\	-ca-	2.ryy	2.ryy	2b-\	.	.	2dd\	.
.	.	.	.	.	.	.	.	.	.	.	.	.	.	4cc\	.	.	.	4a\	.	.	4cc\	.
=40	=40	=40	=40	=40	=40	=40	=40	=40	=40	=40	=40	=40	=40	=40	=40	=40	=40	=40	=40	=40	=40	=40
!	!	!	!	!	!	!LO:SIC:o=2F\:v	!	!	!	!	!	!LO:SIC:o=2f\:v	!	!	!	!	!	!	!	!	!	!
.	.	.	.	.	.	2F\]	.	.	2B-\	-ca-	-ca-	2f\]	.	2dd\	.	2.ryy	2.ryy	2b-\	.	.	2dd\	.
.	.	.	.	.	.	4F\	-ta	-ta	4B-\	-ta	-ta	4f\	-ta	4ee-X\	-ta	.	.	4cc\	.	.	4ee-\	.
=41	=41	=41	=41	=41	=41	=41	=41	=41	=41	=41	=41	=41	=41	=41	=41	=41	=41	=41	=41	=41	=41	=41
2.r	.	2.r	.	2.r	.	2.F\	mun-	mun-	2B-\	mun-	mun-	2f\	mun-	2dd\	mun-	2.ryy	2.ryy	2b-\	.	.	2dd\	.
!	!	!	!	!	!	!	!	!	!	!	!	!	!	!	!	!	!	!LO:SIC:o=4f/:v	!	!	!LO:SIC:o=4ee-\:v	!
.	.	.	.	.	.	.	.	.	4c\	.	.	4b-\	.	4een\	.	.	.	4g/	.	.	4een\	.
=42	=42	=42	=42	=42	=42	=42	=42	=42	=42	=42	=42	=42	=42	=42	=42	=42	=42	=42	=42	=42	=42	=42
!	!	!	!LO:DY:a:t=p.	!	!LO:DY:a:t=piano	!LO:LB:g=original	!	!	!	!	!	!	!	!	!	!	!	!	!	!	!LO:LB:g=original	!
!	!	!	!	!	!	!	!	!	!	!	!	!	!LO:MO:mod=-di.	!	!LO:MO:mod=-di.	!	!	!	!	!	!	!
!	!	!	!	!	!	!	!	!	!	!	!	!	!	!	!	!	!	!	!	!	!LO:SIC:o=4ee-\:v	!
4F\	.	4A/	p	4f/	p	4F\	-di	-di.	4c\	-di	-di.	4a\	-di	4ff\	-di	2.ryy	2.ryy	4a/	.	.	4ff\	.
!	!	!	!	!	!	!	!	!	!	!	!	!	!	!	!	!	!	!	!	!	!LO:SIC:o=4ee-\:v	!
4C/	.	4A/	.	4f/	.	4r	.	.	4r	.	.	4r	.	4r	.	.	.	4a/	.	.	4ff\	.
!	!	!	!	!	!	!	!	!	!LO:MO:mod=!null:null	!	!	!	!	!	!	!	!	!	!	!	!	!
!	!	!	!	!	!	!	!	!	!LO:TX:a:t=Dona Nobis\nVerte	!	!	!	!	!	!	!	!	!	!	!	!	!
!	!	!	!	!	!	!	!	!	!	!	!	!	!	!	!	!	!	!	!	!	!LO:SIC:o=4ee-\:v	!
4AA/	.	4A/	.	4f/	.	4r	.	.	4r	.	.	4r	.	4r	.	.	.	4a/	.	.	4ff\	.
!	!	!	!	!	!	!	!	!	!	!	!	!LO:MO:mod=!null:null	!	!	!	!	!	!	!	!	!	!
!	!	!	!	!	!	!	!	!	!	!	!	!LO:TX:b:t=Dona Verte Cito	!	!	!	!	!	!	!	!	!	!
==	==	==	==	==	==	==	==	==	==	==	==	==	==	==	==	==	==	==	==	==	==	==
*-	*-	*-	*-	*-	*-	*-	*-	*-	*-	*-	*-	*-	*-	*-	*-	*-	*-	*-	*-	*-	*-	*-
!!!system-decoration: [(s1,s2)][(s3,s4)][(s5,s6,s7,s8)][(s9,s10)]s11
!!!RDF**kern: | = vertical stroke
!!!RDF**kern: > = above
!!!RDF**kern: < = below
!!!filter-modern: tie -s | sic -sq | shed -e "s/LO:DY:(a|b|rj)/LO:dy:$1/L" | shed -e "s/TX(.*):t=P:/tx$1:t=P:/LG" | modori -m | autostem -r | shed -e "s/yy//" | shed -k -e "s/\(y([^y])/($1/" | shed -e "s/^(\d+[\/\\]right)/$1yy/I; s/^(\d+[\/\\]left)/$1yy/I" | shed -k -e "s/[<>]//g"
!!!ENC: Berenika Jozajtis
!!!END: 2021-11-22
!!!EED: Krzysztof Stępień
!!!EEV: 2021-12-01
!!!EED-modern: Antoni Szymański
!!!END-modern: 2022-08-26
